!!!!SEGMENT: pl-wtm--r-405-m_moniuszko-stanislaw--hymn.krn
!!!cenid: 18xx:2717
!!!COM: Moniuszko, Stanisław
!!!COM-rismid: pe30008351
!!!CDT: 1819/05/05-1872/06/04
!!!CNT: Polish
!!!OTL: Hymn
!!!PDT:
!!!AGN: Sacred; Hymn
!!!SMS-siglum: PL-Wtm
!!!SMS-shelfmark: R 405/M
!!!SMS-shelfwork: W
!!!SMS-variant:
!!!SMS-altvar:
!!!NIFC-rismid: 1001084453
!!!URL-scan: http://repozytorium.nifc.pl/skany/pl-wtm-nut--r405m
!!!ONB-nifc:
**kern	**text	**dynam	**kern	**text	**dynam	**kern	**text	**text	**dynam	**kern	**text	**text	**dynam
*part4	*part4	*part4	*part3	*part3	*part3	*part2	*part2	*part2	*part2	*part1	*part1	*part1	*part1
*staff4	*staff4	*	*staff3	*staff3	*	*staff2	*staff2	*staff2	*	*staff1	*staff1	*staff1	*
*Iempty	*	*	*Itenor	*	*	*Ialto	*	*	*	*Ivox	*	*	*
*I"[Basso]	*	*	*I"[Tenore]	*	*	*I"[Alto]	*	*	*	*I"[Canto]	*	*	*
*clefF4	*	*	*clefC4	*	*	*clefC3	*	*	*	*clefC1	*	*	*
*k[f#c#]	*	*	*k[f#c#]	*	*	*k[f#c#]	*	*	*	*k[f#c#]	*	*	*
*D:	*	*	*D:	*	*	*D:	*	*	*	*D:	*	*	*
*M4/4	*	*	*M4/4	*	*	*M4/4	*	*	*	*M4/4	*	*	*
*met(c)	*	*	*met(c)	*	*	*met(c)	*	*	*	*met(c)	*	*	*
*2\right	*	*	*2\right	*	*	*2\right	*	*	*	*2\right	*	*	*
!	!	!	!	!	!	!	!	!	!	!LO:TX:a:B:t=Maëstoso.	!	!	!
!	!	!	!	!	!	!	!	!	!	!LO:TX:a:i:t=Dar p. Stanisława Stefanowicza\n1/XI 1903 r.\nZahram<...>	!	!	!
!	!	!	!	!	!	!	!	!	!	!LO:TX:t=P:problem:all\right:global	!	!	!
!	!	!	!	!	!	!LO:TX:t=P:problem:kolejność znaków przykluczowych: F#, c#	!	!	!	!LO:TX:t=P:problem:kolejność znaków przykluczowych: f#, cc#	!	!	!
4r	.	.	4r	.	.	4d\	pow-	.	.	4f#/	Pow-	Uz-	.
=1	=1	=1	=1	=1	=1	=1	=1	=1	=1	=1	=1	=1	=1
!	!	!	!	!	!	!	!	!	!	!	!	!	!LO:HP:a
1r	.	.	2r	.	.	2d\	-stan-	.	.	2f#/	-stań-	-naj-	<
.	.	.	4r	.	.	8A/	-cie	.	.	8d/	-cie!	-cie!	.
.	.	.	.	.	.	8r	.	.	.	8r	.	.	.
.	.	.	4d\	.	.	4f#\	pow-	.	.	4a\	pow-	uz-	.
=2	=2	=2	=2	=2	=2	=2	=2	=2	=2	=2	=2	=2	=2
2r	.	.	2d\	.	.	2f#\	-stan-	.	.	2a\	-stań-	-naj-	.
4r	.	.	8A\	.	.	8d\	-cie	.	.	8f#/	-cie!	-cie!	[
.	.	.	8r	.	.	8r	.	.	.	8r	.	.	.
!	!	!	!	!	!	!	!	!	!	!	!	!	!LO:DY:a
4A\	.	.	4A\	.	.	4a\	pow-	.	.	4a\	po-	uz-	f
=3	=3	=3	=3	=3	=3	=3	=3	=3	=3	=3	=3	=3	=3
4D\	.	.	4A\	.	.	4f#\	-stan-	.	.	4dd\	-wstań-	-naj-	.
8.D\	.	.	8.A\	.	.	8.f#\	-cie	.	.	8.dd\	-cie	-cie	.
16D\	.	.	16A\	.	.	16f#\	swia-	.	.	16dd\	świa-	praw-	.
4G\	.	.	4B\	.	.	4g\	-tło-	.	.	4dd\	-tło-	-dę	.
4G\	.	.	4B\	.	.	4g\	-ści	.	.	4ee\	-ści	w tem	.
=4	=4	=4	=4	=4	=4	=4	=4	=4	=4	=4	=4	=4	=4
!	!	!	!	!	!	!	!	!	!	!	!	!	!LO:HP:a
2D\	.	.	2A\	.	.	2f#\	Sy-	.	.	2ff#\	Sy-	sło-	>
8D\	.	.	8A\	.	.	8f#\	-ny!	.	.	8dd\	-ny!	-wie.	]
8r	.	.	8r	.	.	8r	.	.	.	8r	.	.	.
!	!	!	!	!	!	!	!	!	!	!	!	!	!LO:DY:a:rj
4r	.	.	4B\	.	.	4f#\	po-	.	.	4dd\	po-	my	p
=5	=5	=5	=5	=5	=5	=5	=5	=5	=5	=5	=5	=5	=5
2r	.	.	2B\	.	.	2f#\	-kor-	.	.	2dd\	-kor-	wszy-	.
4r	.	.	8d\	.	.	8f#\	-nem	.	.	8b\	-nem,	-scy,	.
.	.	.	8r	.	.	8r	.	.	.	8r	.	.	.
4F#\	.	.	4c#\	.	.	4a\	po-	.	.	4cc#\	po-	my	.
!!LO:LB:g=original
=6	=6	=6	=6	=6	=6	=6	=6	=6	=6	=6	=6	=6	=6
!	!	!	!	!	!	!	!	!	!	!	!	!	!LO:DY:a:rj
2F#\	.	.	2c#\	.	.	2a\	-kor-	.	.	2cc#\	-kor-	wszy-	p
8F#\	.	.	8c#\	.	.	8f#\	-nem	.	.	8a\	-nem,	-scy	.
8r	.	.	8r	.	.	8r	.	.	.	8r	.	.	.
4F#\	.	.	4c#\	.	.	4f#\	u-	.	.	4a\	u-	my	.
=7	=7	=7	=7	=7	=7	=7	=7	=7	=7	=7	=7	=7	=7
2D\	.	.	2B\	.	.	2f#\	-czu-	.	.	2a\	-czu-	bra-	.
4E\	.	.	4B\	.	.	4e\	-ciem	.	.	4g#X\	-ciem	-cia	.
4E\	.	.	4B\	.	.	4d\	prze-	.	.	4g#\	prze-	jes-	.
=8	=8	=8	=8	=8	=8	=8	=8	=8	=8	=8	=8	=8	=8
2E\	.	.	2G#X/	.	.	2d\	-ię-	.	.	2b\	-ię-	-teś-	.
8AA/	.	.	8A/	.	.	8c#\	-ci	.	.	8a\	-ci	-my.	.
8r	.	.	8r	.	.	8r	.	.	.	8r	.	.	.
!	!	!	!	!	!	!	!	!	!	!	!	!	!LO:DY:a:rj
4A\	.	.	4A/	.	.	4a\	Pan	.	.	4a\	Pan	My	f
=9	=9	=9	=9	=9	=9	=9	=9	=9	=9	=9	=9	=9	=9
4.G\	.	.	4.d\	.	.	4.g\	z gór-	.	.	4.b\	z gór-	wszy-	.
8G\	.	.	8d\	.	.	8g\	-ney	.	.	8b\	-nej	-scy	.
4G\	.	.	4d\	.	.	4g\	nie-	.	.	4b\	nie-	ie-	.
8.G\	.	.	8.d\	.	.	8.g\	-bios	.	.	8.b\	-bios	-go	.
16G\	.	.	16d\	.	.	16g\	kra-	.	.	16b\	kra-	sy-	.
=10	=10	=10	=10	=10	=10	=10	=10	=10	=10	=10	=10	=10	=10
!	!	!	!	!	!	!	!	!	!	!	!	!	!LO:HP:a
2F#\	.	.	2d\	.	.	2a\	-i-	.	.	2dd\	-i-	-no-	<
8F#\	.	.	8d\	.	.	8a\	-ny	.	.	8a\	-ny	-wie,	.
8r	.	.	8r	.	.	8r	.	.	.	8r	.	.	.
4F#\	.	.	4d\	.	.	4a\	o-	.	.	4dd\	o-	mi-	.
=11	=11	=11	=11	=11	=11	=11	=11	=11	=11	=11	=11	=11	=11
4E\	.	.	4B\	.	.	4g\	-gła-	.	.	4ee\	-gła-	-łoś-	.
8.E\	.	.	8.B\	.	.	8.g\	-sza	.	.	8.ee\	-ſza	-cią	.
16E\	.	.	16B\	.	.	16g\	na-	.	.	16ee\	na-	mu	.
4E\	.	.	4B\	.	.	4g\	-u-	.	.	4ee\	-u-	chwa-	[
4E\	.	.	4B\	.	.	4g\	-ki	.	.	4ee\	-ki	-łę	.
=12	=12	=12	=12	=12	=12	=12	=12	=12	=12	=12	=12	=12	=12
!	!	!	!	!	!	!	!	!	!	!	!	!	!LO:DY:a:rj
2AA/	.	.	2c#\	.	.	2a\	Swię-	.	.	2gg\	świę-	wznie-	ff
8D/	.	.	8d\	.	.	8a\	-te	.	.	8ff#\	-te,	-śmy,	.
8r	.	.	8r	.	.	8r	.	.	.	8r	.	.	.
4r	.	.	4r	.	.	4d\	o-	.	.	4dd\	o-	mi-	.
!!LO:LB:g=original
=13	=13	=13	=13	=13	=13	=13	=13	=13	=13	=13	=13	=13	=13
2r	.	.	2r	.	.	2f#\	-gła-	.	.	2ff#\	-gła-	-łoś-	.
4r	.	.	4r	.	.	8d\	-sza	.	.	8dd\	-sza,	-cią,	.
.	.	.	.	.	.	8r	.	.	.	8r	.	.	.
4A\	na-	.	4A\	na-	.	4a\	na-	.	.	4a\	na-	mu	.
=14	=14	=14	=14	=14	=14	=14	=14	=14	=14	=14	=14	=14	=14
!	!	!	!	!	!	!	!	!	!	!	!	!	!LO:HP:a
(>2d\	.	.	(>2d\	.	.	(>2d\	-u-	.	.	(>2dd\	-u-	chwa-	>
4A\)	.	.	4A/)	.	.	4a\)	.	.	.	4a\)	.	.	.
4F#\	.	.	4F#/	.	.	4f#\	-ki	.	.	4f#/	-ki	-łę	]
=15	=15	=15	=15	=15	=15	=15	=15	=15	=15	=15	=15	=15	=15
!	!	!	!	!	!	!	!	!	!	!	!	!	!LO:DY:a:t=p.:rj
1AA	.	.	(<2F#/	.	.	(>2d\	Swię-	.	.	(>2.a/	świę-	wznieś-	p
!	!	!	!	!	!	!	!	!	!	!	!	!	!LO:HP:a
.	.	.	2E/)	.	.	2c#\)	.	.	.	.	.	.	>
.	.	.	.	.	.	.	.	.	.	4g/)	.	.	.
=16	=16	=16	=16	=16	=16	=16	=16	=16	=16	=16	=16	=16	=16
[<1D	.	.	2D/	.	.	[>1d	-te	.	.	2f#/	-te	-my,	]
.	.	.	4r	.	.	.	.	.	.	4r	.	.	.
!	!	!	!	!	!	!	!	!	!	!	!	!	!LO:DY:a:t=pp.
.	.	.	4A\	.	.	.	.	.	.	4f#/	o-	mi-	pp
=17	=17	=17	=17	=17	=17	=17	=17	=17	=17	=17	=17	=17	=17
1D_<	.	.	2B\	.	.	2d\]	.	.	.	2g/	-gła-	-łoś-	.
.	.	.	4B\	.	.	2d\	na-	chwa-	.	4g/	-ſza	-cią	.
.	.	.	4B\	.	.	.	.	.	.	4g/	na-	mu	.
=18	=18	=18	=18	=18	=18	=18	=18	=18	=18	=18	=18	=18	=18
1D_<	.	.	2B-X\	.	.	2d\	-u-	-łę	.	2g/	-u-	chwa-	.
.	.	.	2B-\	.	.	2d\	-ki	mu	.	2g/	-ki	-łę	.
=19	=19	=19	=19	=19	=19	=19	=19	=19	=19	=19	=19	=19	=19
0D_<	.	.	0A	.	.	0d	świę-	wznie-	.	0f#	świę-	wznie-	.
=20	=20	=20	=20	=20	=20	=20	=20	=20	=20	=20	=20	=20	=20
.	.	.	.	.	.	.	.	.	.	.	.	.	.
=21	=21	=21	=21	=21	=21	=21	=21	=21	=21	=21	=21	=21	=21
!LO:TX:b:i:t=S. Moniuszko.\ndla W. Stefanowicza.	!	!	!	!	!	!	!	!	!	!	!	!	!
!	!	!LO:HP:b	!	!	!LO:HP:b	!	!	!	!LO:HP:a	!	!	!	!LO:HP:a
2.D;>\]	.	>]	2.F#/	.	>]	2.A;>/	-te	-śmy.	>]	2.d;>/	-te!	-śmy.	>]
.	.	.	.	.	.	.	.	.	.	.	.	.	.
=:|!	=:|!	=:|!	=:|!	=:|!	=:|!	=:|!	=:|!	=:|!	=:|!	=:|!	=:|!	=:|!	=:|!
*-	*-	*-	*-	*-	*-	*-	*-	*-	*-	*-	*-	*-	*-
!!!system-decoration: [(s1,s2,s3,s4)]
!!!RDF**kern: > = above
!!!RDF**kern: < = below
!!!EED: Antoni Szymański
!!!EST: 2021-07-21
!!!ENC: Mateusz Solarz
!!!END: 2021-07-20
